admin/src/theme/img/safetyequipment/b.svg

<svg width="32" height="32" viewBox="0 0 32 32" xmlns="http://www.w3.org/2000/svg">
  <g fill="none" fill-rule="evenodd">
    <path d="M11.24 30.8571429h9.5257143V32H11.24v-1.1428571Zm1.7142857-23.04571433h6.0971429v6.09714283h-6.0971429V7.81142857Zm1.1428572 1.14285714v3.81142859h3.8114285V8.95428571h-3.8114285Zm1.3314285 4.95428569v16.9542857h1.1428572v-16.96h-1.1428572v.0057143Z" fill="#EC0E0E" fill-rule="nonzero"/>
    <path d="M0 0h32v32H0z"/>
  </g>
</svg>

<?xml version="1.0" encoding="UTF-8"?>
<svg width="32px" height="32px" viewBox="0 0 32 32" version="1.1" xmlns="http://www.w3.org/2000/svg" xmlns:xlink="http://www.w3.org/1999/xlink">
    <title>D449E945-4D02-4E2A-8D47-64CC05D83F0F</title>
    <g id="Squat-laskuri" stroke="none" stroke-width="1" fill="none" fill-rule="evenodd">
        <g id="colors_and_typography" transform="translate(-766.000000, -906.000000)">
            <g id="turvalaite_ikonit" transform="translate(718.000000, 906.000000)">
                <g id="lateraali_vasen" transform="translate(48.000000, 0.000000)">
                    <path d="M11.24,30.8571429 L20.7657143,30.8571429 L20.7657143,32 L11.24,32 L11.24,30.8571429 Z M12.9542857,7.81142857 L19.0514286,7.81142857 L19.0514286,13.9085714 L12.9542857,13.9085714 L12.9542857,7.81142857 L12.9542857,7.81142857 Z M14.0971429,8.95428571 L14.0971429,12.7657143 L17.9085714,12.7657143 L17.9085714,8.95428571 L14.0971429,8.95428571 L14.0971429,8.95428571 Z M15.4285714,13.9085714 L15.4285714,30.8628571 L16.5714286,30.8628571 L16.5714286,13.9028571 L15.4285714,13.9028571 L15.4285714,13.9085714 Z" id="Shape" fill="#EC0E0E" fill-rule="nonzero"></path>
                    <rect id="Rectangle" x="0" y="0" width="32" height="32"></rect>
                </g>
            </g>
        </g>
    </g>
</svg>
